svgs/thin/viruses.svg

<svg xmlns="http://www.w3.org/2000/svg" viewBox="0 0 640 512"><!--! Font Awesome Pro 6.3.0 by @fontawesome - https://fontawesome.com License - https://fontawesome.com/license (Commercial License) Copyright 2023 Fonticons, Inc. --><path d="M340.1 220.4h15.5C371.3 220.4 384 207.7 384 192s-12.75-28.44-28.44-28.44h-15.5c-16.2 0-26.31-10.5-30.39-20.31C305.6 133.4 305.4 118.9 316.8 107.4l10.95-10.97c5.375-5.375 8.328-12.5 8.328-20.09s-2.948-14.74-8.323-20.12C316.7 45.16 298.6 45.16 287.5 56.22L276.6 67.19C265.1 78.59 250.5 78.41 240.7 74.31C230.9 70.25 220.4 60.13 220.4 43.94v-15.5C220.4 12.75 207.7 0 192 0S163.6 12.75 163.6 28.44v15.5c0 16.19-10.48 26.31-20.3 30.38C133.4 78.41 118.9 78.59 107.4 67.19L96.45 56.22C85.36 45.16 67.32 45.16 56.23 56.23C50.85 61.6 47.91 68.75 47.91 76.34s2.953 14.72 8.328 20.09l10.95 10.97C78.64 118.9 78.39 133.4 74.33 143.3c-4.078 9.812-14.19 20.31-30.39 20.31h-15.5C12.75 163.6 0 176.3 0 192s12.75 28.44 28.44 28.44h15.5c16.2 0 26.31 10.5 30.39 20.31C78.39 250.6 78.64 265.1 67.19 276.6L56.23 287.6c-5.375 5.375-8.328 12.5-8.328 20.09s2.936 14.74 8.327 20.12c10.72 10.75 29.39 10.76 40.22 .009l10.95-10.97c11.45-11.44 26.03-11.22 35.86-7.125c9.812 4.062 20.3 14.19 20.3 30.38v15.5C163.6 371.3 176.3 384 192 384s28.44-12.75 28.44-28.44v-15.5c0-16.19 10.48-26.31 20.3-30.38c9.812-4.094 24.41-4.312 35.86 7.125l10.97 11c10.8 10.69 29.44 10.71 40.21-.0402c5.375-5.375 8.323-12.52 8.323-20.12s-2.953-14.72-8.328-20.09L316.8 276.6C305.4 265.1 305.6 250.6 309.7 240.8C313.8 230.9 323.9 220.4 340.1 220.4zM305.5 287.9l10.95 10.97c2.359 2.344 3.641 5.469 3.641 8.781c0 3.344-1.297 6.469-3.625 8.812c-4.719 4.688-12.91 4.688-17.61 0L287.9 305.5C273.6 291.3 253.2 287.2 234.6 294.9C216 302.6 204.4 319.9 204.4 340.1v15.5C204.4 362.4 198.9 368 192 368s-12.44-5.594-12.44-12.44v-15.5c0-20.16-11.56-37.44-30.17-45.16C143.2 292.3 136.7 291.1 130.4 291.1c-12.58 0-24.78 4.969-34.27 14.44L85.16 316.4c-4.734 4.75-12.94 4.719-17.61 .0313C65.2 314.1 63.91 311 63.91 307.7c0-3.312 1.281-6.438 3.641-8.781L78.5 287.9c14.25-14.25 18.31-34.66 10.61-53.28C81.39 216 64.09 204.4 43.94 204.4h-15.5C21.58 204.4 16 198.8 16 192s5.578-12.44 12.44-12.44h15.5c20.16 0 37.45-11.56 45.17-30.19c7.703-18.62 3.641-39.03-10.61-53.28L67.55 85.13C65.19 82.78 63.91 79.66 63.91 76.34c0-3.344 1.297-6.469 3.641-8.812c4.844-4.812 12.75-4.812 17.59 0L96.09 78.5C110.4 92.75 130.8 96.81 149.4 89.09C168 81.38 179.6 64.09 179.6 43.94v-15.5C179.6 21.59 185.1 16 192 16s12.44 5.594 12.44 12.44v15.5c0 20.16 11.56 37.44 30.17 45.16C253.2 96.81 273.6 92.75 287.9 78.5l10.95-10.97c4.844-4.812 12.75-4.812 17.59 0c2.344 2.344 3.641 5.469 3.641 8.812c0 3.312-1.281 6.438-3.641 8.781L305.5 96.09C291.3 110.3 287.2 130.8 294.9 149.4C302.6 168 319.9 179.6 340.1 179.6h15.5C362.4 179.6 368 185.2 368 192s-5.578 12.44-12.44 12.44h-15.5c-20.16 0-37.45 11.56-45.17 30.19C287.2 253.3 291.3 273.7 305.5 287.9zM160 120C137.9 120 120 137.9 120 160S137.9 200 160 200S200 182.1 200 160S182.1 120 160 120zM160 184C146.8 184 136 173.2 136 160S146.8 136 160 136S184 146.8 184 160S173.2 184 160 184zM240 192C231.2 192 224 199.2 224 208C224 216.8 231.2 224 240 224S256 216.8 256 208C256 199.2 248.8 192 240 192zM616.9 344.9h-11.45c-10.94 0-17.78-7.094-20.53-13.72c-2.734-6.625-2.922-16.47 4.828-24.22l8.094-8.094c4.375-4.375 6.781-10.19 6.781-16.38c-.0156-6.156-2.422-11.95-6.781-16.29c-9-9-23.69-8.987-32.69 .0125l-8.094 8.094c-7.766 7.719-17.61 7.469-24.22 4.812C526.2 276.3 519.1 269.5 519.1 258.6V247.1C519.1 234.4 508.8 224 496 224s-23.11 10.38-23.11 23.12v11.44c0 10.94-7.094 17.78-13.72 20.53c-6.609 2.688-16.45 2.938-24.22-4.812l-8.094-8.094c-9.031-9-23.68-8.956-32.68-.0187c-4.375 4.375-6.769 10.14-6.784 16.3c0 6.188 2.406 12 6.781 16.38l8.094 8.094c7.75 7.75 7.562 17.59 4.828 24.22c-2.75 6.625-9.594 13.72-20.53 13.72H375.1C362.4 344.9 352 355.3 352 368s10.36 23.12 23.11 23.12h11.45c10.94 0 17.78 7.094 20.53 13.72c2.734 6.625 2.922 16.47-4.828 24.22l-8.094 8.094c-4.375 4.375-6.781 10.19-6.781 16.38c.0156 6.156 2.434 11.95 6.778 16.29c8.719 8.75 24 8.737 32.69-.0125l8.094-8.094c7.734-7.781 17.56-7.531 24.22-4.812c6.625 2.75 13.72 9.594 13.72 20.53v11.44C472.9 501.6 483.3 512 496 512s23.11-10.38 23.11-23.12v-11.44c0-10.94 7.094-17.78 13.72-20.53c6.641-2.656 16.48-2.938 24.22 4.812l8.078 8.094c8.719 8.75 24.04 8.706 32.7 .0187c4.375-4.375 6.769-10.14 6.784-16.3c0-6.188-2.406-12-6.781-16.38l-8.094-8.094c-7.75-7.75-7.562-17.59-4.828-24.22c2.75-6.625 9.594-13.72 20.53-13.72h11.45C629.6 391.1 640 380.8 640 368S629.6 344.9 616.9 344.9zM616.9 375.1h-11.45c-15.75 0-29.28 9.031-35.31 23.59c-6.031 14.53-2.844 30.5 8.297 41.66l8.094 8.094c1.344 1.344 2.094 3.125 2.094 5.031c-.0156 1.875-.75 3.656-2.109 5c-2.656 2.688-7.359 2.688-10.05 0l-8.094-8.094c-11.16-11.16-27.11-14.25-41.64-8.281c-14.56 6.031-23.61 19.56-23.61 35.31v11.44C503.1 492.8 499.9 496 496 496s-7.109-3.188-7.109-7.125v-11.44c0-15.75-9.047-29.28-23.61-35.31c-4.875-2.031-9.906-3-14.88-3c-9.828 0-19.36 3.875-26.77 11.28l-8.109 8.094c-2.656 2.688-7.344 2.688-10.06 0c-1.328-1.344-2.062-3.125-2.078-5c0-1.906 .75-3.688 2.094-5.031l8.094-8.094c11.14-11.16 14.33-27.12 8.297-41.66c-6.031-14.56-19.56-23.59-35.31-23.59H375.1C371.2 375.1 368 371.9 368 368s3.188-7.125 7.109-7.125h11.45c15.75 0 29.28-9.031 35.31-23.59c6.031-14.53 2.844-30.5-8.297-41.66l-8.094-8.094C404.1 286.2 403.4 284.4 403.4 282.5c.0156-1.875 .75-3.656 2.094-5c2.781-2.75 7.281-2.75 10.06 0l8.094 8.094c11.14 11.16 27.11 14.22 41.64 8.281c14.56-6.031 23.61-19.56 23.61-35.31V247.1C488.9 243.2 492.1 240 496 240s7.109 3.188 7.109 7.125v11.44c0 15.75 9.047 29.28 23.61 35.31c14.53 6.031 30.48 2.875 41.64-8.281l8.094-8.094c2.781-2.75 7.297-2.75 10.08 0c1.328 1.344 2.062 3.125 2.078 5c0 1.906-.75 3.688-2.094 5.031l-8.094 8.094c-11.14 11.16-14.33 27.12-8.297 41.66c6.031 14.56 19.56 23.59 35.31 23.59h11.45C620.8 360.9 624 364.1 624 368S620.8 375.1 616.9 375.1zM480 320c-17.67 0-32 14.33-32 32c0 17.67 14.33 32 32 32s32-14.33 32-32C512 334.3 497.7 320 480 320zM480 368c-8.822 0-16-7.178-16-16s7.178-16 16-16s16 7.178 16 16S488.8 368 480 368z"/></svg>

<svg xmlns="http://www.w3.org/2000/svg" viewBox="0 0 640 512"><!-- Font Awesome Pro 6.0.0-alpha2 by @fontawesome - https://fontawesome.com License - https://fontawesome.com/license (Commercial License) --><path d="M340.062 220.438H355.562C371.25 220.438 384 207.688 384 192S371.25 163.562 355.562 163.562H340.062C323.859 163.562 313.75 153.062 309.672 143.25C305.609 133.438 305.359 118.875 316.812 107.406L327.766 96.438C333.141 91.062 336.094 83.938 336.094 76.344S333.141 61.594 327.766 56.219C316.672 45.156 298.641 45.156 287.547 56.219L276.594 67.188C265.141 78.594 250.547 78.406 240.734 74.312C230.922 70.25 220.438 60.125 220.438 43.938V28.438C220.438 12.75 207.688 0 192 0S163.562 12.75 163.562 28.438V43.938C163.562 60.125 153.078 70.25 143.266 74.313C133.438 78.406 118.859 78.594 107.406 67.188L96.453 56.219C85.359 45.156 67.328 45.156 56.234 56.219C50.859 61.594 47.906 68.75 47.906 76.344S50.859 91.062 56.234 96.438L67.188 107.406C78.641 118.875 78.391 133.438 74.328 143.25C70.25 153.062 60.141 163.562 43.938 163.562H28.438C12.75 163.562 0 176.312 0 192S12.75 220.438 28.438 220.438H43.938C60.141 220.438 70.25 230.938 74.328 240.75C78.391 250.562 78.641 265.125 67.188 276.594L56.234 287.562C50.859 292.938 47.906 300.062 47.906 307.656S50.859 322.406 56.25 327.781C66.969 338.531 85.625 338.531 96.453 327.781L107.406 316.812C118.859 305.375 133.438 305.594 143.266 309.688C153.078 313.75 163.563 323.875 163.563 340.063V355.563C163.562 371.25 176.312 384 192 384S220.438 371.25 220.438 355.562V340.062C220.438 323.875 230.922 313.75 240.734 309.687C250.547 305.594 265.141 305.375 276.594 316.812L287.562 327.812C298.359 338.5 317 338.531 327.766 327.781C333.141 322.406 336.094 315.25 336.094 307.656S333.141 292.937 327.766 287.562L316.812 276.594C305.359 265.125 305.609 250.562 309.672 240.75C313.75 230.938 323.859 220.438 340.062 220.438ZM305.5 287.906L316.453 298.875C318.813 301.219 320.094 304.344 320.094 307.656C320.094 311 318.797 314.125 316.469 316.469C311.75 321.156 303.563 321.156 298.859 316.469L287.906 305.5C273.625 291.25 253.188 287.156 234.609 294.906C216 302.625 204.438 319.906 204.438 340.062V355.562C204.438 362.406 198.859 368 192 368S179.562 362.406 179.562 355.562V340.062C179.562 319.906 168 302.625 149.391 294.906C143.156 292.312 136.719 291.062 130.359 291.062C117.781 291.062 105.578 296.031 96.094 305.5L85.156 316.438C80.422 321.188 72.219 321.156 67.547 316.469C65.203 314.125 63.906 311 63.906 307.656C63.906 304.344 65.188 301.219 67.547 298.875L78.5 287.906C92.75 273.656 96.812 253.25 89.109 234.625C81.391 216 64.094 204.438 43.938 204.438H28.438C21.578 204.438 16 198.844 16 192S21.578 179.562 28.438 179.562H43.938C64.094 179.562 81.391 168 89.109 149.375C96.813 130.75 92.75 110.344 78.5 96.094L67.547 85.125C65.188 82.781 63.906 79.656 63.906 76.344C63.906 73 65.203 69.875 67.547 67.531C72.391 62.719 80.297 62.719 85.141 67.531L96.094 78.5C110.375 92.75 130.812 96.812 149.391 89.094C168 81.375 179.562 64.094 179.562 43.938V28.438C179.562 21.594 185.141 16 192 16S204.438 21.594 204.438 28.438V43.938C204.438 64.094 216 81.375 234.609 89.094C253.188 96.812 273.625 92.75 287.906 78.5L298.859 67.531C303.703 62.719 311.609 62.719 316.453 67.531C318.797 69.875 320.094 73 320.094 76.344C320.094 79.656 318.812 82.781 316.453 85.125L305.5 96.094C291.25 110.344 287.188 130.75 294.891 149.375C302.609 168 319.906 179.562 340.062 179.562H355.562C362.422 179.562 368 185.156 368 192S362.422 204.438 355.562 204.438H340.062C319.906 204.438 302.609 216 294.891 234.625C287.188 253.25 291.25 273.656 305.5 287.906ZM160 120C137.938 120 120 137.938 120 160S137.938 200 160 200S200 182.062 200 160S182.062 120 160 120ZM160 184C146.766 184 136 173.219 136 160S146.766 136 160 136S184 146.781 184 160S173.234 184 160 184ZM240 192C231.164 192 224 199.162 224 208C224 216.836 231.164 224 240 224S256 216.836 256 208C256 199.162 248.836 192 240 192ZM616.891 344.875H605.437C594.5 344.875 587.656 337.781 584.906 331.156C582.172 324.531 581.984 314.688 589.734 306.938L597.828 298.844C602.203 294.469 604.609 288.656 604.609 282.469C604.594 276.313 602.187 270.531 597.828 266.188C588.828 257.188 574.141 257.188 565.141 266.188L557.047 274.281C549.281 282 539.437 281.75 532.828 279.094C526.203 276.344 519.109 269.5 519.109 258.562V247.125C519.109 234.375 508.75 224 496 224S472.891 234.375 472.891 247.125V258.562C472.891 269.5 465.797 276.344 459.172 279.094C452.562 281.781 442.719 282.031 434.953 274.281L426.859 266.188C417.828 257.188 403.188 257.219 394.188 266.156C389.812 270.531 387.406 276.312 387.391 282.469C387.391 288.656 389.797 294.469 394.172 298.844L402.266 306.938C410.016 314.688 409.828 324.531 407.094 331.156C404.344 337.781 397.5 344.875 386.563 344.875H375.109C362.359 344.875 352 355.25 352 368S362.359 391.125 375.109 391.125H386.563C397.5 391.125 404.344 398.219 407.094 404.844C409.828 411.469 410.016 421.312 402.266 429.062L394.172 437.156C389.797 441.531 387.391 447.344 387.391 453.531C387.406 459.687 389.813 465.469 394.156 469.812C402.875 478.562 418.172 478.562 426.859 469.812L434.953 461.719C442.688 453.937 452.516 454.187 459.172 456.906C465.797 459.656 472.891 466.5 472.891 477.438V488.875C472.891 501.625 483.25 512 496 512S519.109 501.625 519.109 488.875V477.438C519.109 466.5 526.203 459.656 532.828 456.906C539.469 454.25 549.312 453.969 557.047 461.719L565.125 469.812C573.844 478.562 589.156 478.531 597.812 469.844C602.188 465.469 604.594 459.688 604.609 453.531C604.609 447.344 602.203 441.531 597.828 437.156L589.734 429.062C581.984 421.312 582.172 411.469 584.906 404.844C587.656 398.219 594.5 391.125 605.437 391.125H616.891C629.641 391.125 640 380.75 640 368S629.641 344.875 616.891 344.875ZM616.891 375.125H605.437C589.687 375.125 576.156 384.156 570.125 398.719C564.094 413.25 567.281 429.219 578.422 440.375L586.516 448.469C587.859 449.812 588.609 451.594 588.609 453.5C588.594 455.375 587.859 457.156 586.5 458.5C583.844 461.188 579.141 461.188 576.453 458.5L568.359 450.406C557.203 439.25 541.25 436.156 526.719 442.125C512.156 448.156 503.109 461.687 503.109 477.437V488.875C503.109 492.812 499.922 496 496 496S488.891 492.812 488.891 488.875V477.438C488.891 461.688 479.844 448.156 465.281 442.125C460.406 440.094 455.375 439.125 450.406 439.125C440.578 439.125 431.047 443 423.641 450.406L415.531 458.5C412.875 461.188 408.187 461.188 405.469 458.5C404.141 457.156 403.406 455.375 403.391 453.5C403.391 451.594 404.141 449.813 405.484 448.469L413.578 440.375C424.719 429.219 427.906 413.25 421.875 398.719C415.844 384.156 402.312 375.125 386.562 375.125H375.109C371.188 375.125 368 371.938 368 368S371.188 360.875 375.109 360.875H386.563C402.313 360.875 415.844 351.844 421.875 337.281C427.906 322.75 424.719 306.781 413.578 295.625L405.484 287.531C404.141 286.188 403.391 284.406 403.391 282.5C403.406 280.625 404.141 278.844 405.484 277.5C408.266 274.75 412.766 274.75 415.547 277.5L423.641 285.594C434.781 296.75 450.75 299.812 465.281 293.875C479.844 287.844 488.891 274.313 488.891 258.563V247.125C488.891 243.188 492.078 240 496 240S503.109 243.188 503.109 247.125V258.562C503.109 274.312 512.156 287.844 526.719 293.875C541.25 299.906 557.203 296.75 568.359 285.594L576.453 277.5C579.234 274.75 583.75 274.75 586.531 277.5C587.859 278.844 588.594 280.625 588.609 282.5C588.609 284.406 587.859 286.187 586.516 287.531L578.422 295.625C567.281 306.781 564.094 322.75 570.125 337.281C576.156 351.844 589.688 360.875 605.438 360.875H616.891C620.812 360.875 624 364.062 624 368S620.812 375.125 616.891 375.125ZM480 320C462.326 320 448 334.326 448 352C448 369.672 462.326 384 480 384S512 369.672 512 352C512 334.326 497.674 320 480 320ZM480 368C471.178 368 464 360.822 464 352S471.178 336 480 336S496 343.178 496 352S488.822 368 480 368Z"/></svg>
